X: 2
T: Valse Des Bas De Laine 
T: Mazurka Des Bas De Laine 
T: Wollen Socks 
M: 3/4
L: 1/8
R: mazurka
K: Dmaj
|: FG | 
A2 FA dA | f2 d<A d<A | ge cA ce | ef dA FG |
A2 FA d<A | f2 d<A d<A | ge cA Bc | d4 :|
|: F2 |
G2 GA BG | FA dF dF | E2 cE cE | d2 dF dF |
G2 GA BG | FA dF dF | E2 cE cE | d4 :|
